austria/municipalities/70413.svg

<?xml version="1.0" encoding="UTF-8"?>
<!DOCTYPE svg PUBLIC "-//W3C//DTD SVG 1.1//EN" "http://www.w3.org/Graphics/SVG/1.1/DTD/svg11.dtd">
<svg xmlns="http://www.w3.org/2000/svg" version="1.1" width="166px" height="192px" style="shape-rendering:geometricPrecision; text-rendering:geometricPrecision; image-rendering:optimizeQuality; fill-rule:evenodd; clip-rule:evenodd" xmlns:xlink="http://www.w3.org/1999/xlink">
<g><path style="opacity:1" fill="#030101" d="M -0.5,-0.5 C 54.8333,-0.5 110.167,-0.5 165.5,-0.5C 165.5,39.5 165.5,79.5 165.5,119.5C 156.92,160.081 132.253,184.081 91.5,191.5C 84.8333,191.5 78.1667,191.5 71.5,191.5C 30.9303,182.931 6.93035,158.264 -0.5,117.5C -0.5,78.1667 -0.5,38.8333 -0.5,-0.5 Z"/></g>
<g><path style="opacity:1" fill="#d73023" d="M 3.5,3.5 C 29.1753,3.16689 54.842,3.50022 80.5,4.5C 60.9018,56.1278 41.4018,107.794 22,159.5C 11.5324,147.113 5.53235,132.78 4,116.5C 3.50001,78.8348 3.33335,41.1681 3.5,3.5 Z"/></g>
<g><path style="opacity:1" fill="#e3a21c" d="M 71.5,121.5 C 74.4665,121.011 77.1332,119.845 79.5,118C 82.0464,114.41 84.2131,110.577 86,106.5C 87.7342,104.549 89.9009,103.549 92.5,103.5C 92.5,99.1667 92.5,94.8333 92.5,90.5C 104.171,90.3335 115.838,90.5001 127.5,91C 131.197,93.4468 134.364,92.9468 137,89.5C 142.565,65.2958 137.232,43.9625 121,25.5C 120.685,26.9078 121.018,28.2411 122,29.5C 128.169,36.8367 132.502,45.17 135,54.5C 136.288,65.6989 136.788,76.8656 136.5,88C 135.107,89.3631 133.441,90.1964 131.5,90.5C 117.863,89.535 104.197,89.2016 90.5,89.5C 90.6655,93.5138 90.4988,97.5138 90,101.5C 84.9951,104.492 81.6618,108.826 80,114.5C 77.7146,117.892 74.548,119.559 70.5,119.5C 70.5,111.167 70.5,102.833 70.5,94.5C 68.5,94.5 66.5,94.5 64.5,94.5C 64.5,87.8333 64.5,81.1667 64.5,74.5C 66.5,74.5 68.5,74.5 70.5,74.5C 70.5,73.5 70.5,72.5 70.5,71.5C 83.1842,71.8324 95.8508,71.4991 108.5,70.5C 111.316,66.5452 114.983,65.5452 119.5,67.5C 119.272,63.1638 120.939,59.8304 124.5,57.5C 124.469,46.8953 121.469,37.062 115.5,28C 104.622,26.608 97.6221,20.7747 94.5,10.5C 100.245,10.2111 105.912,10.7111 111.5,12C 114.726,13.198 117.559,15.0314 120,17.5C 125.333,25.5 130.667,33.5 136,41.5C 140.146,50.54 141.979,60.04 141.5,70C 141.066,76.9296 140.9,83.7629 141,90.5C 138,92.8333 135,95.1667 132,97.5C 131.097,96.2986 129.931,95.4652 128.5,95C 118.172,94.5002 107.839,94.3335 97.5,94.5C 97.5,125.167 97.5,155.833 97.5,186.5C 88.4852,187.724 79.4852,187.724 70.5,186.5C 70.1693,164.66 70.5027,142.994 71.5,121.5 Z"/></g>
<g><path style="opacity:1" fill="#211910" d="M 71.5,121.5 C 71.1667,120.833 70.8333,120.167 70.5,119.5C 74.548,119.559 77.7146,117.892 80,114.5C 81.6618,108.826 84.9951,104.492 90,101.5C 90.4988,97.5138 90.6655,93.5138 90.5,89.5C 104.197,89.2016 117.863,89.535 131.5,90.5C 133.441,90.1964 135.107,89.3631 136.5,88C 136.788,76.8656 136.288,65.6989 135,54.5C 132.502,45.17 128.169,36.8367 122,29.5C 121.018,28.2411 120.685,26.9078 121,25.5C 137.232,43.9625 142.565,65.2958 137,89.5C 134.364,92.9468 131.197,93.4468 127.5,91C 115.838,90.5001 104.171,90.3335 92.5,90.5C 92.5,94.8333 92.5,99.1667 92.5,103.5C 89.9009,103.549 87.7342,104.549 86,106.5C 84.2131,110.577 82.0464,114.41 79.5,118C 77.1332,119.845 74.4665,121.011 71.5,121.5 Z"/></g>
<g><path style="opacity:1" fill="#e4a31c" d="M 95.5,68.5 C 87.8333,68.5 80.1667,68.5 72.5,68.5C 72.5,67.5 72.5,66.5 72.5,65.5C 75.2797,57.9496 80.6131,55.4496 88.5,58C 92.7039,60.2381 95.0372,63.7381 95.5,68.5 Z"/></g>
<g><path style="opacity:1" fill="#7e5d22" d="M 72.5,65.5 C 72.5,66.5 72.5,67.5 72.5,68.5C 80.1667,68.5 87.8333,68.5 95.5,68.5C 87.6841,69.4924 79.6841,69.8257 71.5,69.5C 71.2322,67.901 71.5655,66.5676 72.5,65.5 Z"/></g>
<g><path style="opacity:1" fill="#fdfdfd" d="M -0.5,117.5 C 6.93035,158.264 30.9303,182.931 71.5,191.5C 47.5,191.5 23.5,191.5 -0.5,191.5C -0.5,166.833 -0.5,142.167 -0.5,117.5 Z"/></g>
<g><path style="opacity:1" fill="#fdfdfd" d="M 165.5,119.5 C 165.5,143.5 165.5,167.5 165.5,191.5C 140.833,191.5 116.167,191.5 91.5,191.5C 132.253,184.081 156.92,160.081 165.5,119.5 Z"/></g>
</svg>

<svg xmlns="http://www.w3.org/2000/svg" width="166" height="192" style="shape-rendering:geometricPrecision;text-rendering:geometricPrecision;image-rendering:optimizeQuality;fill-rule:evenodd;clip-rule:evenodd"><path style="opacity:1" fill="#030101" d="M-.5-.5h166v120c-8.58 40.581-33.247 64.581-74 72h-20c-40.57-8.569-64.57-33.236-72-74V-.5z"/><path style="opacity:1" fill="#d73023" d="M3.5 3.5c25.675-.333 51.342 0 77 1a43286.471 43286.471 0 0 0-58.5 155c-10.468-12.387-16.468-26.72-18-43-.5-37.665-.667-75.332-.5-113z"/><path style="opacity:1" fill="#e3a21c" d="M71.5 121.5a17.42 17.42 0 0 0 8-3.5 64.739 64.739 0 0 0 6.5-11.5c1.734-1.951 3.9-2.951 6.5-3v-13a612.94 612.94 0 0 1 35 .5c3.697 2.447 6.864 1.947 9.5-1.5 5.565-24.204.232-45.538-16-64-.315 1.408.018 2.741 1 4 6.169 7.337 10.502 15.67 13 25a238.806 238.806 0 0 1 1.5 33.5c-1.393 1.363-3.059 2.196-5 2.5a443.631 443.631 0 0 0-41-1 72.444 72.444 0 0 1-.5 12c-5.005 2.992-8.338 7.326-10 13-2.285 3.392-5.452 5.059-9.5 5v-25h-6v-20h6v-3c12.684.332 25.35 0 38-1 2.816-3.955 6.483-4.955 11-3-.228-4.336 1.439-7.67 5-10-.031-10.605-3.031-20.438-9-29.5-10.878-1.392-17.878-7.225-21-17.5a61.53 61.53 0 0 1 17 1.5 23.161 23.161 0 0 1 8.5 5.5l16 24c4.146 9.04 5.979 18.54 5.5 28.5-.434 6.93-.6 13.763-.5 20.5l-9 7a6.977 6.977 0 0 0-3.5-2.5 480.949 480.949 0 0 0-31-.5v92a99.724 99.724 0 0 1-27 0c-.33-21.84.003-43.506 1-65z"/><path style="opacity:1" fill="#211910" d="m71.5 121.5-1-2c4.048.059 7.215-1.608 9.5-5 1.662-5.674 4.995-10.008 10-13 .499-3.986.665-7.986.5-12a443.631 443.631 0 0 1 41 1c1.941-.304 3.607-1.137 5-2.5a238.806 238.806 0 0 0-1.5-33.5c-2.498-9.33-6.831-17.663-13-25-.982-1.259-1.315-2.592-1-4 16.232 18.462 21.565 39.796 16 64-2.636 3.447-5.803 3.947-9.5 1.5a612.94 612.94 0 0 0-35-.5v13c-2.6.049-4.766 1.049-6.5 3a64.739 64.739 0 0 1-6.5 11.5 17.42 17.42 0 0 1-8 3.5z"/><path style="opacity:1" fill="#e4a31c" d="M95.5 68.5h-23v-3c2.78-7.55 8.113-10.05 16-7.5 4.204 2.238 6.537 5.738 7 10.5z"/><path style="opacity:1" fill="#7e5d22" d="M72.5 65.5v3h23c-7.816.992-15.816 1.326-24 1-.268-1.599.066-2.932 1-4z"/><path style="opacity:1" fill="#fdfdfd" d="M-.5 117.5c7.43 40.764 31.43 65.431 72 74h-72v-74zM165.5 119.5v72h-74c40.753-7.419 65.42-31.419 74-72z"/></svg>
